teeny/solid/send-up.svg

<svg width="15" height="15" viewBox="0 0 15 15" fill="none" xmlns="http://www.w3.org/2000/svg">
<path fill-rule="evenodd" clip-rule="evenodd" d="M7.5 0.792892L11.8536 5.14645L11.1464 5.85355L8 2.70711V12H7V2.70711L3.85355 5.85355L3.14645 5.14645L7.5 0.792892ZM14 13V14H1V13H14Z" fill="black"/>
</svg>

<svg viewBox="0 0 15 15" xmlns="http://www.w3.org/2000/svg"><path fill-rule="evenodd" d="M7.5.79l4.35 4.35 -.71.7 -3.15-3.15v9.29h-1v-9.3L3.84 5.82l-.71-.71L7.48.75Zm6.5 12.2v1H1v-1h13Z"/></svg>
